www/assets/icons/swipe_up.svg

<svg width="24" height="24" viewBox="0 0 24 24" xmlns="http://www.w3.org/2000/svg" fill='currentColor'><path d="M1.78229 6.00873L0.72229 4.94873L4.22229 1.44873L7.72229 4.94873L6.66229 6.00873L5.04229 4.38873C4.83229 5.20873 4.72229 6.06873 4.72229 6.94873C4.72229 9.36873 5.54229 11.5987 6.92229 13.3787L5.85229 14.4487C4.21229 12.3987 3.22229 9.78873 3.22229 6.94873C3.22229 6.02873 3.32229 5.12873 3.52229 4.26873L1.78229 6.00873ZM13.5723 12.0687L10.8923 6.69873C10.5223 5.95873 9.62229 5.65873 8.88229 6.02873C8.13229 6.40873 7.83229 7.30873 8.20229 8.04873L13.0123 17.6487L9.77229 18.4487C9.44229 18.5387 9.18229 18.7787 9.07229 19.1087L8.72229 20.2287L14.9123 22.4787C15.4123 22.6487 16.1923 22.4987 16.6623 22.2587L22.1723 19.5087C23.0623 19.0587 23.4923 18.0287 23.1723 17.0887L21.7423 12.8187C21.4723 11.9987 20.7023 11.4487 19.8423 11.4487H15.2823C14.9723 11.4487 14.6623 11.5187 14.3923 11.6587L13.5723 12.0687Z"/></svg>

<svg xmlns="http://www.w3.org/2000/svg" width="24" height="24" viewBox="0 0 24 24" fill='currentColor'><path d="m1.782 6.009-1.06-1.06 3.5-3.5 3.5 3.5-1.06 1.06-1.62-1.62a10.46 10.46 0 0 0 1.88 8.99l-1.07 1.07a11.97 11.97 0 0 1-2.63-7.5c0-.92.1-1.82.3-2.68zm11.79 6.06-2.68-5.37a1.5 1.5 0 0 0-2.01-.67c-.75.38-1.05 1.28-.68 2.02l4.81 9.6-3.24.8c-.33.09-.59.33-.7.66l-.35 1.12 6.19 2.25c.5.17 1.28.02 1.75-.22l5.51-2.75c.89-.45 1.32-1.48 1-2.42l-1.43-4.27a2 2 0 0 0-1.9-1.37h-4.56c-.31 0-.62.07-.89.21z"/></svg>
